X:128
T:RVW2/2/128 Bizzoms
C:Mr. Brice, Stratford Tony, Wiltshire, 31 August 1904
L:1/4
Q:1/4=160
M:4/4
I:linebreak $
K:G
"^(Editorial suggestion " G | G F A G | F D z E | G G A B | c3 d | d d A G |$ F D z d | d d c A | 
w: I|am a biz- zom|ma- ker the|truth to you I'll|tell I|am a biz- zom|ma- ker I|live in yon- der|
G2 z2 | d d d e | c2 z2 | d d d e |$ c2 z2 | d d d/d/ e | (c B) A B | c c d G | (G F E D) |: 
w: dell|Plea- sure I do|take|mor- ning night and|noon|Trip- ping o- ver the|hills _ and I|ga- thers all sweet|broom _ _ _|
(G B) A G |$ F D3 | G G A"^(a)" B | c2 z2 | d d A G | F D3 | d d c A | G3 :|$ G | G F A G | 
w: Who'll _ buy my|biz- zoms,|biz- zoms fine and|new?|Come and buy my|biz- zoms|bet- ter ne- ver|grew.|||
F D z E | G G A B | c3 d | d d A G |$ F D z d | d d c A | G2 z2 | d d d e | c2 z2 | d d d e |$ 
w: ||||||||||
c2 z2 | d d d/d/ e | c B A B | c c d G | G F E D |: G B A G |$ F D3 | G G A"^(a) var." D | c2 z2 | 
w: |||||||||
d d A G | F D3 | d d c A | G3 :| 
w: ||||



